X: 273
M: 6/8
L: 1/8
K: G
d2d dcd | !+!BAG g2g | !+!f2g aga | d3 G2G |\
d2d dcd | !+!BAG g2g | f2g aga | d3 :|
|: "4 F"A2B |\
c2B ABG | !+!F2D GFG | AGA BcB | !+!A3 A2B |\
c2B ABG | !+!F2D gfe | dcB AGF | G3 :|

